X:7
T:Donald MacIsaac's Retirement
R:jig
C:Wendy MacIssac
O:21st century Cape Breton
S:Silver Apple News, 2004
D:Wendy MacIsaac, Timeline
Z:Paul Stewart Cranford (P.S.C.), <http://www.cranfordpub.com>
Q:300
L:1/8
M:6/8
K:E
B|egf eBG|ABc BGF|EGB efg|fdB agf|
egf eBG|ABc BGF|EGB efg|fed e/e/e:|
|:g|fdB Bcd|egf eBG|ABc BGE|[1GFF F2 g|
fdB Bcd|egf eBG|ABc Bcd|egf e/e/e:|
[2GFF FGF|EGB eBe|egf eBG|ABc Bcd|egf e/e/e|]
